X:1
T:Title
%%score { 1 | 2 }
L:1/8
Q:1/4=100
M:4/4
K:C
V:1 treble nm="Grand Piano"
V:2 bass 
V:1
 C2 E>F G3 G | AGAB c4 | d2 d>c B4 | [Ge]2 [Ge]>[Fd] [Ec]4 | C2 E>F G3 G | ABcd e4 | %6
w: John~R.~Sweney * * * *||||||
 [FAd]3 [F^Gc] [E=Gc][DGB][CFA][FB] | [Ec]6 z2 | [EG]2 [CE]>[DF] [EG][Ge] [Ec]2 | %9
w: |||
 [EG]2 [CE]>[DF] [EG][Ge] [Ec]2 | d3 c cB B2 | [Ge]3 [Fd] [Fd][Ec] [Ec]2 | %12
w: |||
 [EG]2 [CE]>[DF] [EG][Ge] [Ec]2 | [EG]2 [CE]>[DF] [EG][Ge] [Ec]2 | d3 c cB[FA][FB] | [Ec]6 z2 |] %16
w: ||||
V:2
 C,2 E,>F, G,3 G, | A,G,A,B,[K:treble] C4 | [G,B,G]2 [G,FG]>[G,EG] [G,DG]4 | %3
 [C,C]2 [C,C]>[C,G,] [C,G,]4 | C,2 E,>F, G,3 G, | A,B,CD E4 | F,3 F, G,G,G,,[G,,G,] | [C,G,]6 z2 | %8
 [C,C]2 [C,G,]>[C,G,] [C,C][C,C] [C,G,]2 | [C,C]2 [C,G,]>[C,G,] [C,C][C,C] [C,G,]2 | %10
 [G,FG]3 [G,EG] [G,EG][G,DG] [G,DG]2 | [C,C]3 [C,G,] [C,G,][C,G,] [C,G,]2 | %12
 [C,C]2 [C,G,]>[C,G,] [C,C][C,C] [C,G,]2 | [C,C]2 [C,G,]>[C,G,] [C,C][C,C] [C,G,]2 | %14
 [F,A,F]3 [F,^G,F] [=G,E][G,D][G,,G,][G,,G,] | [C,G,]6 z2 |] %16

